app/_images/farm.svg

<svg xmlns="http://www.w3.org/2000/svg" fill="none" viewBox="0 0 20 20">
  <path
    stroke="currentColor"
    stroke-linecap="round"
    stroke-width="1.5"
    d="M13.3332 18.889C12.4516 18.2252 10.7915 17.7779 8.88872 17.7779M8.88872 17.7779C6.98599 17.7779 5.32583 18.2252 4.44428 18.889M8.88872 17.7779V11.1112M2.22165 5.60932C6.05503 5.99095 8.45341 8.38933 8.83505 12.2228C8.89583 12.8333 8.38866 13.3406 7.77802 13.2798C3.94463 12.8981 1.54626 10.4998 1.16462 6.66634C1.10383 6.05571 1.61101 5.54853 2.22165 5.60932ZM17.7782 1.15238C12.558 1.54842 9.32595 4.78041 8.92991 10.0007C8.8835 10.6126 9.38735 11.1165 9.99925 11.07C15.2195 10.674 18.4515 7.44198 18.8475 2.22172C18.894 1.60982 18.3901 1.10597 17.7782 1.15238Z"
  />
</svg>

<svg xmlns="http://www.w3.org/2000/svg" width="20" height="20" fill="none">
  <path
    stroke="currentColor"
    stroke-linecap="round"
    stroke-linejoin="round"
    stroke-width="1.5"
    d="M13.333 18.889c-.881-.664-2.541-1.111-4.444-1.111m0 0c-1.903 0-3.563.447-4.445 1.11m4.445-1.11V11.11M2.222 5.61c3.833.382 6.232 2.78 6.613 6.614a.963.963 0 0 1-1.057 1.057c-3.833-.382-6.232-2.78-6.613-6.614A.962.962 0 0 1 2.222 5.61Zm15.556-4.457c-5.22.396-8.452 3.628-8.848 8.849A.993.993 0 0 0 10 11.07c5.22-.396 8.452-3.628 8.848-8.848a.993.993 0 0 0-1.07-1.07Z"
  ></path>
</svg>
